!!!!SEGMENT: Wil2046-Videns_Dominus.krn
!!!id: Wil2046
!!!AGN: Motet
!!!SCT: Rifkin (1997)
!!!voices: 4
!!!COM: Adrian Willaert
!!!OTL: Videns Dominus
**kern	**kern	**kern	**kern
*part4	*part3	*part2	*part1
*staff4	*staff3	*staff2	*staff1
*I"Bassus	*I"Tenor	*I"Altus	*I"Superius
*I'B	*I'T	*I'A	*I'S
*clefF4	*clefGv2	*clefGv2	*clefG2
*k[]	*k[]	*k[]	*k[]
*C:	*C:	*C:	*C:
*M2/1	*M2/1	*M2/1	*M2/1
*met(C|)	*met(C|)	*met(C|)	*met(C|)
!!section: Prima pars: Videns Dominus
!!!OMD: Prima pars: Videns Dominus
=1	=1	=1	=1
0r	0r	1.G	0r
.	.	2G	.
=2	=2	=2	=2
0r	0r	2A	0r
.	.	2B	.
.	.	2.c	.
.	.	8BL	.
.	.	8AJ	.
=3	=3	=3	=3
0r	0r	1G	1.g
.	.	1c	.
.	.	.	2g
=4	=4	=4	=4
0r	0r	2c	2a
.	.	2B	2b
.	.	2A	2.cc
.	.	[2c	.
.	.	.	8bL
.	.	.	8aJ
=5	=5	=5	=5
0r	0r	4c]	1g
.	.	4B	.
.	.	2G	.
.	.	2A	1cc
.	.	2A	.
=6	=6	=6	=6
0r	0r	2G	2b
.	.	1d	2b
.	.	.	2a
.	.	2e	[2cc
=7	=7	=7	=7
0r	0r	2f	4cc]
.	.	.	4b
.	.	1g	2g
.	.	.	2a
.	.	2f	2a
=8	=8	=8	=8
0r	1r	2.e	1g
.	.	8dL	.
.	.	8cJ	.
.	[1G	[1B	2r
.	.	.	[2d
=9	=9	=9	=9
0r	2G]	1B]	2d]
.	2G	.	2e
.	2A	2r	2f
.	2B	2d	[2g
=10	=10	=10	=10
0r	2.c	2e	4g]
.	.	.	4c
.	.	2c	1cc
.	8BL	.	.
.	8AJ	.	.
.	[1G	1d	.
.	.	.	2b
=11	=11	=11	=11
1.C	1G]	1e	2.cc
.	.	.	8bL
.	.	.	8aJ
.	1c	2.e	2g
2C	.	.	[2a
.	.	8dL	.
.	.	8eJ	.
=12	=12	=12	=12
2D	2B	2f	2a]
2E	2B	2e	2g
2.F	2A	1c	1a
.	[2c	.	.
8EL	.	.	.
8DJ	.	.	.
=13	=13	=13	=13
1C	4c]	2r	1.cc
.	4B	.	.
.	2G	1e	.
1F	2A	.	.
.	2A	[2d	4b
.	.	.	4a
=14	=14	=14	=14
2E	1G	2d]	2b
2E	.	2c	2e
2D	2r	1d	2.f
[2F	[2A	.	.
.	.	.	4g
=15	=15	=15	=15
4F]	2A]	2.c	2a
4E	.	.	.
2C	2G	.	2e
.	.	4B	.
2D	2F	2.A	2.f
2D	[2A	.	.
.	.	8GL	8eL
.	.	8FJ	8dJ
=16	=16	=16	=16
2C	2A]	1c	4e
.	.	.	4f
2E	2G	.	4g
.	.	.	4e
2D	2A	2r	4f
.	.	.	4g
2C	[2c	[2e	[2a
=17	=17	=17	=17
1E	4c]	2e]	4a]
.	4B	.	4g
.	2G	2c	1g
2.D	1A	[1d	.
.	.	.	2f#i
4C	.	.	.
=18	=18	=18	=18
2BB	0G	2d]	0g
2C	.	2c	.
2GG	.	2.B	.
[2G	.	.	.
.	.	4A	.
=19	=19	=19	=19
2G]	0r	1B	1r
2E	.	.	.
[1F	.	[1A	[1c
=20	=20	=20	=20
2F]	0A	1A]	1c]
2E	.	.	.
2.D	.	1F	1d
4C	.	.	.
=21	=21	=21	=21
1D	1F	2A	1.f
.	.	2B	.
2.C	[1G	[1c	.
.	.	.	4e
4BB	.	.	4d
=22	=22	=22	=22
2C	2G]	2c]	2e
2D	2F	2B	1d
1AA	1E	1A	.
.	.	.	2c#i
=23	=23	=23	=23
1r	1D	2r	0d
.	.	2.B	.
1GG	1G	.	.
.	.	4A	.
.	.	4G	.
.	.	4F	.
=24	=24	=24	=24
2.C	1G	2E	1.e
.	.	1G	.
4BB	.	.	.
2C	[1A	.	.
[2D	.	4F	2d
.	.	4E	.
=25	=25	=25	=25
4D]	2A]	2F	1d
4C	.	.	.
4BB	1B	2.G	.
4AA	.	.	.
2GG	.	.	1g
.	.	4A	.
[2G	4A	4B	.
.	4G	4c	.
=26	=26	=26	=26
4G]	2B	2d	1g
4F	.	.	.
4E	2c	1g	.
4D	.	.	.
2C	1A	.	[1a
[2D	.	4f	.
.	.	4e	.
=27	=27	=27	=27
2D]	1.d	2f	2a]
2GG	.	2.g	1b
1G	.	.	.
.	.	4f	.
.	4c	4d	4a
.	4B	4e	4g
=28	=28	=28	=28
2F	2c	2f	2a
2G	2B	2e	1g
1D	1A	1d	.
.	.	.	2f#i
=29	=29	=29	=29
1GG	1G	1d	0g
[1C	[1G	[1e	.
=30	=30	=30	=30
1C]	1G]	1e]	0g
1C	1G	1e	.
=31	=31	=31	=31
0C	2.c	2.e	1g
.	4d	4f	.
.	[1e	[1g	[1cc
=32	=32	=32	=32
0G	2e]	0g]	2cc]
.	4d	.	4b
.	4c	.	4a
.	1d	.	1b
=33	=33	=33	=33
2r	1c	1e	2r
1A	.	.	1cc
.	2r	1r	.
2G	[2d	.	2b
=34	=34	=34	=34
2F	2d]	0r	2a
2F	2c	.	2a
1G	1B	.	2b
.	.	.	[2dd
=35	=35	=35	=35
1A	1c	1r	4dd]
.	.	.	4cc
.	.	.	1cc
1G	2d	2r	.
.	[2e	[2g	2b
=36	=36	=36	=36
2r	4e]	2g]	1cc
.	4d	.	.
1A	1c	2f	.
.	.	2e	1r
2G	2B	2e	.
=37	=37	=37	=37
2F	1c	2f	2r
2F	.	2.a	1cc
1G	2r	.	.
.	.	4g	.
.	[2d	[2g	2b
=38	=38	=38	=38
1A	2d]	2g]	2a
.	2c	2f#i	2a
1G	2B	1g	2b
.	2B	.	[2dd
=39	=39	=39	=39
0r	1c	2r	4dd]
.	.	.	4cc
.	.	1g	1cc
.	1d	.	.
.	.	2f	2b
=40	=40	=40	=40
1C	2c	2e	0cc
.	2G	2e	.
[1F	2A	2f	.
.	[2c	[2a	.
=41	=41	=41	=41
2F]	4c]	4a]	0r
.	4B	4g	.
2E	2G	1g	.
2C	1A	.	.
2D	.	2f#i	.
=42	=42	=42	=42
1E	2r	0g	0r
.	2G	.	.
2C	[1c	.	.
2E	.	.	.
=43	=43	=43	=43
2F	2c]	1r	0r
1G	2B	.	.
.	2G	2r	.
2F	2A	[2d	.
=44	=44	=44	=44
4G	1B	2d]	0r
4F	.	.	.
4E	.	1g	.
4D	.	.	.
2E	2G	.	.
2F	2A	2f	.
=45	=45	=45	=45
2G	2B	2d	0r
4F	1c	2e	.
4E	.	.	.
1D	.	2f	.
.	2B	2d	.
=46	=46	=46	=46
1C	2.c	2.e	1g
.	4B	4d	.
1r	2A	2e	1cc
.	2A	2f	.
=47	=47	=47	=47
0r	2G	4g	2b
.	.	4f	.
.	1c	4e	1g
.	.	4d	.
.	.	2e	.
.	4B	2f	2a
.	4A	.	.
=48	=48	=48	=48
0r	1G	2g	2b
.	.	2e	2g
.	1r	1d	2a
.	.	.	2b
=49	=49	=49	=49
0r	2r	2c	1cc
.	2A	2.e	.
.	2G	.	2b
.	.	4d	.
.	2A	4c	[2cc
.	.	4B	.
=50	=50	=50	=50
2r	1.c	2A	4cc]
.	.	.	4b
2C	.	1e	4a
.	.	.	4g
1F	.	.	2a
.	4B	2d	2a
.	4A	.	.
=51	=51	=51	=51
2E	2B	1.e	1g
1C	2c	.	.
.	1A	.	2r
2D	.	4d	2f
.	.	4c	.
=52	=52	=52	=52
2E	2G	2B	2g
2C	1A	2c	2e
2D	.	1B	2f
2E	2G	.	[2e
=53	=53	=53	=53
1F	2A	1A	2e]
.	2F	.	2d
2E	2G	2c	2e
[2F	[2A	2B	2c
=54	=54	=54	=54
2F]	4A]	2A	2d
.	4G	.	.
2E	1c	2G	2e
1D	.	2A	1f
.	2B	2F	.
=55	=55	=55	=55
1C	1c	1G	0e
1C	1r	1c	.
=56	=56	=56	=56
2E	1G	2.B	2r
2E	.	.	1g
.	.	4c	.
1D	1A	4d	.
.	.	4A	.
.	.	[2d	2f
=57	=57	=57	=57
0r	1A	4d]	2.e
.	.	4c	.
.	.	1c	.
.	.	.	8dL
.	.	.	8cJ
.	[1G	.	2d
.	.	4B	2e
.	.	4A	.
=58	=58	=58	=58
1GG	1G]	1B	2.d
.	.	.	4e
[1D	2r	1A	[1f
.	2F	.	.
=59	=59	=59	=59
2D]	2A	0r	2f]
2D	2B	.	4e
.	.	.	4d
1C	2.c	.	[1e
.	8BL	.	.
.	8AJ	.	.
=60	=60	=60	=60
2r	2G	0r	1e]
2C	2A	.	.
2D	2B	.	2r
2E	2B	.	2g
=61	=61	=61	=61
2.F	4A	0r	1.a
.	4B	.	.
.	4c	.	.
8EL	4d	.	.
8DJ	.	.	.
2C	2e	.	.
2D	[2d	.	2a
=62	=62	=62	=62
2E	2d]	1G	1g
2E	2c	.	.
2.D	2B	[1d	2r
.	[2A	.	2a
4C	.	.	.
=63	=63	=63	=63
1BB	2A]	2d]	2b
.	2G	2d	2b
2AA	2.A	1c	2.cc
[2C	.	.	.
.	8GL	.	8bL
.	8FJ	.	8aJ
=64	=64	=64	=64
2C]	1E	2r	2g
4BB	.	2c	2a
4AA	.	.	.
1GG	1r	2d	2b
.	.	2e	2b
=65	=65	=65	=65
0r	0r	2.f	2a
.	.	.	1cc
.	.	8eL	.
.	.	8dJ	.
.	.	2c	.
.	.	2d	4b
.	.	.	4a
=66	=66	=66	=66
0r	1r	2e	2g
.	.	2e	1cc
.	1G	1d	.
.	.	.	2b
=67	=67	=67	=67
1r	1.A	2r	1.cc
.	.	2c	.
1AA	.	2e	.
.	2A	2f	4b
.	.	.	4a
=68	=68	=68	=68
2.E	1G	2.g	0b
4F	.	8fL	.
.	.	8eJ	.
2.G	2r	2d	.
.	2G	2e	.
8FL	.	.	.
8EJ	.	.	.
=69	=69	=69	=69
2D	2A	2f	2r
2GG	2B	2d	1g
1C	2.c	2.e	.
.	.	.	2a
.	8BL	8dL	.
.	8AJ	8cJ	.
=70	=70	=70	=70
2BB	2G	2d	2b
2.AA	2A	2f	1cc
.	[1c	[1e	.
4BB	.	.	.
4C	.	.	4b
4D	.	.	4a
=71	=71	=71	=71
4E	2c]	2e]	2.g
4F	.	.	.
1G	2B	2.d	.
.	.	.	4a
.	2G	.	2b
.	.	4B	.
2F	2A	4c	[2a
.	.	4d	.
=72	=72	=72	=72
2E	2B	1e	4a]
.	.	.	4g
2C	2c	.	1g
1D	1A	1d	.
.	.	.	2f#i
=73	=73	=73	=73
00GGl	00Gl	00dl	00gl
==	==	==	==
*-	*-	*-	*-
!!!system-decoration: [*]
!!!RDF**kern: i = editorial accidental
!!!RDF**kern: l = terminal long
!!!ENC: Benjamin Ory
!!!END: 2021/3/10
!!!EED: Benjamin Ory
!!!EEV: 2021/04/30
!!!YEC: Copyright 2021 Benjamin Ory, All Rights Reserved
!!!ONB: Translated from MusicXML on 2021/04/30
